X: 1
T: Rabbit On The Deathslide
M: 6/8
L: 1/8
R: jig
K: Bmin
dBB EBB|Ace fdB|dBB EBB|Bcd dcB|
dBB EBB|Ace fdB|A3 d3|ABc d3:|
|:aff dff|efg agf|aff dff|e2 a2 (3efg|
aff dff|efg agf|a3 d3|ABc d3:|
